src/img/logos/move.svg

<svg fill="none" height="32" viewBox="0 0 78 32" width="78" xmlns="http://www.w3.org/2000/svg" xmlns:xlink="http://www.w3.org/1999/xlink"><clipPath id="a"><path d="m0 0h78v32h-78z"/></clipPath><g clip-path="url(#a)" fill="#bcd530"><path d="m44.0988 11.1727c.2353 1.3852.3497 2.7882.342 4.1932 5.2716 2.4569-1.3981 11.3739-10.5025 5.2218-.0131-.0092-2.0966 2.7045-2.5683 3.8328 1.7978 1.9498 10.2064 4.3504 16.0571-1.5725 3.7752-3.8288 1.9826-10.3623-3.3283-11.6753z"/><path d="m35.5396 27.205c-4.3557 3.3034-7.6185 1.634-4.8339-3.5039 4.0188-7.1664 8.9025-8.1243 8.9025-8.1243s.0577-2.8041-.532-4.4263c-6.8322 1.0273-16.9311 12.0723-12.738 18.3109 3.3873 5.0331 10.9743 1.6747 13.8138-2.242-1.5121.3001-3.0688.2254-4.6124-.0144z"/><path d="m27.5176 18.229c1.1175-1.4725 2.3868-2.8235 3.7869-4.0307-4.9283-15.76881 5.6123-13.04064 8.4453-3.1789 0 0 1.5488 4.9112-.6958 10.9533 1.283.1938 2.5946.0428 3.8-.4376.8989-2.5762.8989-6.3134.8989-6.3134.0655-20.72328-24.5692-20.82287-16.2353 3.0073z"/><path d="m24.2521 7.01105v14.61185h-4.9099v-11.2311l-5.1104 11.2271h-4.2154l-5.11041-11.2271v11.2311h-4.90599v-14.61185h7.60008l4.51552 10.30855 4.5391-10.30855z"/><path d="m68.0247 18.5632v-2.8238h8.4439v-3.2301h-8.4439v-2.1529h9.048v-3.34535h-12.0527-1.5737-2.9811l-4.6688 10.93885-4.5168-10.93885h-4.7068l6.7601 14.60785h4.9257l5.1877-11.2088v11.2088h13.8151v-3.0557z"/></g></svg>

<svg width="78" height="32" viewBox="0 0 78 32" fill="none" xmlns="http://www.w3.org/2000/svg">
<g clip-path="url(#clip0_2_88)">
<path d="M44.0988 11.1727C44.3341 12.5579 44.4485 13.9609 44.4408 15.3659C49.7124 17.8228 43.0427 26.7398 33.9383 20.5877C33.9252 20.5785 31.8417 23.2922 31.37 24.4205C33.1678 26.3703 41.5764 28.7709 47.4271 22.848C51.2023 19.0192 49.4097 12.4857 44.0988 11.1727Z" fill="#BCD530" class="fill" />
<path d="M35.5396 27.205C31.1839 30.5084 27.9211 28.839 30.7057 23.7011C34.7245 16.5347 39.6082 15.5768 39.6082 15.5768C39.6082 15.5768 39.6659 12.7727 39.0762 11.1505C32.244 12.1778 22.1451 23.2228 26.3382 29.4614C29.7255 34.4945 37.3125 31.1361 40.152 27.2194C38.6399 27.5195 37.0832 27.4448 35.5396 27.205Z" fill="#BCD530" class="fill" />
<path d="M27.5176 18.229C28.6351 16.7565 29.9044 15.4055 31.3045 14.1983C26.3762 -1.57051 36.9168 1.15766 39.7498 11.0194C39.7498 11.0194 41.2986 15.9306 39.054 21.9727C40.337 22.1665 41.6486 22.0155 42.854 21.5351C43.7529 18.9589 43.7529 15.2217 43.7529 15.2217C43.8184 -5.50158 19.1837 -5.60117 27.5176 18.229Z" fill="#BCD530" class="fill" />
<path d="M24.2521 7.01105V21.6229H19.3422V10.3918L14.2318 21.6189H10.0164L4.90599 10.3918V21.6229H0V7.01105H7.60008L12.1156 17.3196L16.6547 7.01105H24.2521Z" fill="#BCD530" class="fill" />
<path d="M68.0247 18.5632V15.7394H76.4686V12.5093H68.0247V10.3564H77.0727V7.01105H65.02H63.4463H60.4652L55.7964 17.9499L51.2796 7.01105H46.5728L53.3329 21.6189H58.2586L63.4463 10.4101V21.6189H77.2614V18.5632H68.0247Z" fill="#BCD530" class="fill" />
</g>
<defs>
<clipPath id="clip0_2_88">
<rect width="78" height="32" fill="white"/>
</clipPath>
</defs>
</svg>
